X:130
T:Polska efter Carl Johan Krej
T:(SvL Småland 130)
R:Polska
B:Svenska Låtar Småland
S:Carl Johan Krej
O:Ålem, Småland
Z:Till abc Jonas Brunskog
M:3/4
L:1/8
K:D
A>F Ac (cd)|AF Ac d2|D>F Ac (cd)|AF Ac d2|e>f fg ec|
d>e (f/e/f/g/) a2|e>f fg ec|d>e (f/e/f/g/) a2|e>f (fg) ec|(cd) d2 z2||

